!!!OTL-incipit: ES WAR EINMAL EIN FEINER KNAB
!!!ARE: Europa, Mitteleuropa, Deutschland, Franken
!!!SCT: Z0045
!!!TXL: @@DE
!!!YEM: Copyright 1995, estate of Helmut Schaffrath.
**kern	**text
*ICvox	*
*M3/4	*
*k[f#c#g#d#]	*
*E:	*
!LO:TX:a:t=Aus dem Fränkiſchen.	!
{8e	Es
8e	war
8g#	ein-
=1	=1
(4b/	-mal
8g#)	.
8b/	ein
8cc#	fei-
8a	-ner
=2	=2
(4a	Knab,
8g#)}	.
{8e	Es
8e	war
8g#	ein-
=3	=3
(4b/	-mal
8g#)	.
8b/	ein
8cc#	fei-
8a	-ner
=4	=4
(4a	Knab,
8g#)}	.
{8b/	Der
8b/	liebt
8b/	ſein
=5	=5
(4g#	Schätʒ-
8f#)	.
8g#	-chen
8a	ſie-
8f#	-ben
=6	=6
(4f#	Jahr.
8e)}	.
{8b/	Der
8b/	liebt
8b/	ſein
=7	=7
(4g#	Schätʒ-
8f#)	.
8g#	-chen
8a	ſie-
8f#	-ben
=8	=8
(4f#	Jahr.
8e)}	.
==;;	==;;
!!!AGN: Sagen - Lied, Romanze, Tod
!!!ONB: ESAC (Essen Associative Code) Database: ZUCCAL
!!!AMT: simple triple
!!!AIN: vox
!!!EED: Helmut Schaffrath
!!!EEV: 1.0
!!!GTL: I. Ernste Romanzen und Sagen.
!!!URL-scan: https://www.digitale-sammlungen.de/de/view/bsb11160571?page=93
!!!ENC: Anna Maria Matuszewska
!!!EEV: 2025/01/23
*-	*-
